X:1
T:James Gibb editions
T:Ne recorderis - Palestrina
T:#
%%score [ 1 2 3 4 ]
L:1/8
Q:1/4=90
M:4/4
K:G
V:1 treble nm="Soprano" snm="S"
V:2 treble nm="Alto" snm="A"
V:3 treble-8 nm="Tenor" snm="T"
V:4 bass nm="Bass" snm="B"
V:1
"^Ne recorderis""^G.P. da Palestina\n(1525-94)" z8 | z8 | z8 | z8 | z8 | z8 | z8 | z4 d4- | %8
w: |||||||Ne|
[M:4/4] d4 c4- | c2 B2 e4 | d4 z2 G2 | c6 B2 | A2 G2 A2 A2 | B4 z2 G2 | B3 c d2 e2- | e2 c2 e4 | %16
w: * re\-|* cor- de-|ris pec-|ca- ta|me- a, Do- mi-|ne, Dum|ve- ne- ris ju\-|* di- ca-|
 d2 B4 G2 | F2 (EFGE A2- | A2) (G4 FE | F4) D4 | z2 G4 E2 | F2 G2 E4 | F4 z4 | z8 | z4 z2 d2- | %25
w: re sae- cu-|lum per * * * *|* i\- * *|* gnem,|sae- cu-|lum per i-|gnem.||Di\-|
 dd d2 c4- | c2 B2 (B2 AG | A2) (B3 A A2 | A2 ^GF G3 A/B/ | c2) B2 (A2 B2- | BA G4 FE | F4) E4 | %32
w: * ri- ge, Do\-|* mi- ne * *|* De\- * *||* us me- *||* us,|
 z4 z2 A2- | AA A2 G4- | G2 F2 F2 G2- | G2 F2 E4 | F2 B4 A2 | F2 G2 A4 | G6 E2 | F2 (G4 CD | %40
w: Di\-|* ri- ge, Do\-|* mi- ne De\-|* us me-|us, in con-|spe- ctu tu-|o vi-|am me\- * *|
 E4) D2 (d2- | dcBA G2 F2) | G4 z4 | z2 e4 d2 | B2 c2 d4- | d2 c2 B2 c2 | A8 | A2 D2 F3 G | %48
w: * am, me\-||am,|in con-|spe- ctu tu\-|* o vi- am|me-|am. Dum ve- ne-|
 A4 F2 E2 | G8 | D4 z4 | z8 | z4 G4 | B3 c d2 e2- | e2 c2 e4 | d2 d4 B2 | A2 (GABG c2) | %57
w: ris ju- di-|ca-|re,||dum|ve- ne- ris ju\-|* di- ca-|re sae- cu-|lum per * * * *|
 (B3 c d4) | G4 z2 G2 | B2 c2 A2 B2 | E2 (G4 FE | D2 G4 F2) | G4 z2 d2- | d2 B2 A2 (DE | %64
w: i\- * *|gnem, dum|ve- ne- ris ju-|di- ca\- * *||re sae\-|* cu- lum per *|
 FE G2) (E2 CD | E4) D4 | z2 D2 E2[Q:1/4=89] G2- | %67
w: * * * i\- * *|* gnem,|sae- cu- lum|
[Q:1/4=87] G2[Q:1/4=85] (E2 F2[Q:1/4=83] G2)[Q:1/4=84] | %68
w: * per * *|
[Q:1/4=81] E8[Q:1/4=80][Q:1/4=80][Q:1/4=78] |[Q:1/4=77] !fermata!F8 |] %70
w: i-|gnem.|
V:2
 A8 | G6 F2 | B4 A4 | z2 G2 c4- | c2 B2 A2 G2 | F2 B2 (A3 B | cd e2) d4 | G4 A4 |[M:4/4] B2 A2 z4 | %9
w: Ne|re- cor-|de- ris|pec- ca\-|* ta me- a,|Do- mi- ne, *|* * * ne|re- cor-|de- ris|
 z2 D2 G4- | G2 F2 E2 D2 | E2 F2 G2 d2- | d2 ^c2 d4- | d2 G2 B3 c | d2 (G3 FED | C2) =F2 (E2 C2) | %16
w: pec- ca\-|* ta me- a,|Do- mi- ne, Do\-|* mi- ne,|* Dum ve- ne-|ris ju\- * * *|* di- ca\- *|
 G4 z4 | z8 | z8 | D4 F3 G | A2 B4 G2 | B4 A2 A2- | A2 F2 E2 (DE | FD G4) F2 | G4 z4 | z8 | %26
w: re,|||dum ve- ne-|ris ju- di-|ca- re sae\-|* cu- lum per *|* * * i-|gnem.||
 z4 z2 d2- | dd d2 c4- | c2 B2 B4 | A2 G2 (F2 G2- | GF E2) D4 | z2 A3 A A2 | G6 F2 | E2 e4 e2 | %34
w: Di\-|* ri- ge, Do\-|* mi- ne|De- us me\- *|* * * us,|Di- ri- ge,|Do- mi-|ne De- us|
 d4 B4 | z4 z2 e2- | e2 d2 B2 c2 | d6 c2 | B4 G4 | (A2 B3 G A2- | AG G4 F2 | G3 ABc d2- | %42
w: me- us,|in|* con- spe- ctu|tu- o|vi- am|me\- * * *|||
 d2) (cB A4) | A3 A G2 F2 | G2 E2 D4 | E6 (e2- | ed d4 ^c2) | d8- | d4 z2 G2 | B3 c d4- | %50
w: * am, * *|in con- spe- ctu|tu- o vi-|am me\-||am.|* Dum|ve- ne- ris|
 d2 B4 G2 | (B2 A3 G G2- | G2 F2) E4 | G3 G F2 (EF | GE A3 G G2- | G2) F2 G2 d2- | d2 B2 G2 A2 | %57
w: * ju- di-|ca\- * * *|* * re|sae- cu- lum per *||* i- gnem, sae\-|* cu- lum per|
 G4 (BAGF | GFED C4) | z8 | G4 B3 c | d2 e4 c2 | e2 (d3 cBA | G2) d4 B2 | A2 (GABG c2) | %65
w: i- gnem, * * *|||dum ve- ne-|ris ju- di-|ca- re * * *|* sae- cu-|lum per * * * *|
 (B2 G2) A4 | d4 c2 B2 | d2 (e3 d d2- | d2 ^cB c4) | !fermata!d8 |] %70
w: i\- * gnem,|sae- cu- lum|per i\- * *||gnem.|
V:3
 z8 | z4 d4- | d4 c4- | c2 B2 e4 | d2 G2 c2 B2 | A2 (G3 F F2) | (E3 FGA B2- | BA G4) F2 | %8
w: |Ne|* re\-|* cor- de-|ris pec- ca- ta|me- a, * *|Do\- * * * *|* * * mi-|
[M:4/4][K:treble-8] G2 D2 G2 G2 | (AG F2) E4 | z2 D2 G4- | G2 F2 E2 D2 | (F2 G4) F2 | G4 z2 d2 | %14
w: ne, ne re- cor-|de\- * * ris|pec- ca\-|* ta me- a,|Do\- * mi-|ne, Dum|
 G3 A B2 c2- | c2 A2 c4 | B2 d4 B2 | A2 (GABG c2) | (B2 G2) A4- | A4 d3 d | c2 (d3 A e2 | %21
w: ve- ne- ris ju\-|* di- ca-|re sae- cu-|lum per * * * *|i\- * gnem,|* sae- cu-|lum per * *|
 ed d4) ^c2 | d4 z2 d2- | dd d2 !courtesy!=c4- | c2 B2 B4 | A6 G2 | (G6 FE | F2 G2) E4 | z2 e4 e2 | %29
w: * * * i-|gnem. Di\-|* ri- ge, Do\-|* mi- ne|De- us|me\- * *|* * us,|Do- mi-|
 e4 d4 | G4 A4 | A4 z4 | z2 d3 d d2 | c6 B2 | B2 d4 B2 | (cB B4 A2) | B4 z4 | z4 z2 e2- | %38
w: ne De-|us me-|us,|Di- ri- ge,|Do- mi-|ne De- us|me\- * * *|us,|in|
 e2 d2 B2 c2 | d6 c2 | B2 G2 A4 | B2 (EFGA B2- | BA G4 FE | F2 E2 z2 B2- | B2 A2 F2 G2 | A6 G2 | %46
w: * con- spe- ctu|tu- o|vi- am me-|am, me\- * * * *||* am, in|* con- spe- ctu|tu- o|
 F2 D2 E4 | F4 z2 D2 | F3 G A2 B2- | B2 G2 B3 A/G/ | FD d3 cBA | GA/B/ c2 B2 AG | A4) B4 | %53
w: vi- am me-|am. Dum|ve- ne- ris ju\-|* di- ca\- * *|||* re|
 z2 G2 A2 c2- | c2 A2 (B2 cB | AG A2) B4 | z8 | z2 G2 B3 c | d2 e4 c2 | e4 (d3 c | B4) z2 B2- | %61
w: sae- cu- lum|* per i\- * *|* * * gnem,||dum ve- ne-|ris ju- di-|ca- re *|* sae\-|
 B2 G2 A2 c2- | c2 (BA B4- | B2 G2) E2 d2- | d2 B2 G2 A2- | A2 (G4 FE | F3 G A2 B2- | B2 AG B4 | %68
w: * cu- lum per|* i\- * *|* * gnem, sae\-|* cu- lum per|* i\- * *|||
 A8) | !fermata!A8 |] %70
w: |gnem.|
V:4
 z8 | z8 | z8 | z8 | z8 | D,8 | C,6 B,,2 | E,4 D,2 D,2 |[M:4/4] G,2 F,2 (E,D,C,B,, | %9
w: |||||Ne|re- cor-|de- ris pec-|ca- ta me\- * * *|
 A,,2) B,,2 C,2 C,2 | B,,2 B,,2 C,2 B,,2 | A,,4 G,,4 | D,2 E,2 D,4 | G,,8 | z8 | z8 | %16
w: * a Do- mi-|ne, pec- ca ta|me- a,|Do- * mi-|ne,|||
 z2 G,,2 B,,3 C, | D,2 E,4 C,2 | E,4 D,4 | z2 D,4 B,,2 | A,,2 (G,,A,,B,,G,, C,2) | %21
w: Dum ve- ne-|ris ju- di-|ca- re|sae- cu-|lum per * * * *|
 (B,,2 G,,2) A,,4 | D,4 C,2 B,,2- | B,,2 G,,2 A,,4 | G,,2 G,3 G, G,2 | =F,6 E,2 | E,4 D,4- | %27
w: i\- * gnem,|sae- cu- lum|* per i-|gnem. Di- ri- ge,|Do- mi-|ne De\-|
 D,2 G,,2 A,,4 | E,8 | z8 | z4 z2 D,2- | D,D, D,2 C,4- | C,2 B,,2 B,,2 D,2 | (A,,B,,C,D, E,4) | %34
w: * us me-|us,||Di\-|* ri- ge, Do\-|* mi- ne De-|us * * * *|
 (B,,3 C,D,B,, E,2- | E,2 D,2 C,4) | B,,4 G,,2 A,,2 | B,,4 A,,4 | z8 | z8 | z8 | z2 E,4 D,2 | %42
w: me\- * * * *||us, De- us|me- us,||||in con-|
 B,,2 C,2 D,4- | D,2 C,2 (B,,3 A,, | G,,2) A,,2 B,,4 | A,,4 C,2 A,,2 | (D,4 A,,4) | D,8- | D,4 z4 | %49
w: spe- ctu tu\-|* o vi\- *|* am me-|am vi- am|me\- *|am.||
 z4 z2 G,,2 | B,,3 C, D,2 E,2- | E,2 C,2 E,4 | D,4 z2 G,2- | G,2 E,2 D,2 (C,D, | %54
w: Dum|ve- ne- ris ju\-|* di- ca-|re sae\-|* cu- lum per *|
 E,C, =F,2) (E,2 C,2) | D,4 (G,,A,,B,,C, | D,2) (E,4 A,,2) | E,4 z4 | z2 C,2 E,3 F, | %59
w: * * * i\- *|gnem, per * * *|* i\- *|gnem,|dum ve- ne-|
 G,2 A,2 F,2 (G,2- | G,F, E,4 D,C, | B,,2 C,2 A,,4) | G,,4 G,,4- | G,,2 G,,2 D,4 | z8 | %65
w: ris ju- di- ca\-|||re sae\-|* cu- lum,||
 z4 z2 D,2- | D,2 B,,2 A,,2 (G,,A,, | B,,G,, C,2) (B,,2 G,,2 | A,,8) | !fermata!D,8 |] %70
w: sae\-|* cu- lum per *|* * * i\- *||gnem.|

